!!!OTL: ACH SCHWESTER DIE DU SICHER
!!!ARE: Europa, Mitteleuropa, Deutschland, Priegnitz
!!!SCT: B0144
!!!YEM: Copyright 1995, estate of Helmut Schaffrath.
**kern
*ICvox
*Ivox
*M2/4
*k[f#]
*G:
{8dd
=1
8gg
16ff#
16ee
8dd
8b
=2
8dd
8cc
8a}
{8cc
=3
8b
16cc
16a
16a
16g
16g
16f#
=4
8f#
8g
8r}
{8dd
=5
8gg
16ff#
16ee
8dd
8b
=6
8dd
8cc
8a}
{8cc
=7
8b
16cc
16a
16a
16g
16g
16f#
=8
8f#
8g
8r}
{8dd
=9
8f#
8a
8g
8b
=10
8.a
16cc
8b}
{8dd
=11
8gg
16ff#
16ee
16ee
16dd
16dd
16cc#
=12
8cc#
8dd
8r}
{8dd
=13
8gg
16ff#
16ee
8dd
8b
=14
8dd
8cc
8a}
{8cc
=15
8b
16cc
16a
16a
16g
16g
16f#
=16
8f#
8g
8r}
==
!!!AGN: Ballade, Romanze
!!!ONB: ESAC (Essen Associative Code) Database: BOEHME
!!!AMT: simple duple
!!!AIN: vox
!!!EED: Helmut Schaffrath
!!!EEV: 1.0
*-
